components/Icon/svg/spreading.svg

<svg width="24" height="24" viewBox="0 0 24 24" fill="none" xmlns="http://www.w3.org/2000/svg">
<g clip-path="url(#clip0_69:398)">
<path d="M9.42458 8.5752L2.04938 1.2H6.60098C6.93218 1.2 7.20098 0.9312 7.20098 0.6C7.20098 0.2688 6.93218 0 6.60098 0H0.600977C0.269777 0 0.000976562 0.2688 0.000976562 0.6V6.6C0.000976562 6.9312 0.269777 7.2 0.600977 7.2C0.932177 7.2 1.20098 6.9312 1.20098 6.6V2.0484L8.57618 9.4236C8.69378 9.5412 8.84738 9.5988 9.00098 9.5988C9.15458 9.5988 9.30818 9.54 9.42578 9.4236C9.65978 9.1896 9.65978 8.8092 9.42578 8.5752H9.42458Z" fill="white"/>
<path d="M23.4005 0H17.4005C17.0693 0 16.8005 0.2688 16.8005 0.6C16.8005 0.9312 17.0693 1.2 17.4005 1.2H21.9521L14.5769 8.5752C14.3429 8.8092 14.3429 9.1896 14.5769 9.4236C14.6945 9.5412 14.8481 9.5988 15.0005 9.5988C15.1529 9.5988 15.3077 9.54 15.4241 9.4236L22.8005 2.0484V6.6C22.8005 6.9312 23.0693 7.2 23.4005 7.2C23.7317 7.2 24.0005 6.9312 24.0005 6.6V0.6C24.0005 0.2688 23.7317 0 23.4005 0Z" fill="white"/>
<path d="M9.42458 14.5764C9.19058 14.3424 8.81018 14.3424 8.57618 14.5764L1.20098 21.9516V17.4C1.20098 17.0688 0.932177 16.8 0.600977 16.8C0.269777 16.8 0.000976562 17.0688 0.000976562 17.4V23.4C0.000976562 23.7312 0.269777 24 0.600977 24H6.60098C6.93218 24 7.20098 23.7312 7.20098 23.4C7.20098 23.0688 6.93218 22.8 6.60098 22.8H2.04938L9.42458 15.4236C9.65858 15.1896 9.65858 14.8092 9.42458 14.5752V14.5764Z" fill="white"/>
<path d="M23.3997 16.8C23.0685 16.8 22.7997 17.0688 22.7997 17.4V21.9516L15.4233 14.5764C15.1893 14.3424 14.8089 14.3424 14.5749 14.5764C14.3409 14.8104 14.3409 15.1908 14.5749 15.4248L21.9513 22.8H17.3997C17.0685 22.8 16.7997 23.0688 16.7997 23.4C16.7997 23.7312 17.0685 24 17.3997 24H23.3997C23.7309 24 23.9997 23.7312 23.9997 23.4V17.4C23.9997 17.0688 23.7309 16.8 23.3997 16.8Z" fill="white"/>
</g>
<defs>
<clipPath id="clip0_69:398">
<rect width="24" height="24" fill="white"/>
</clipPath>
</defs>
</svg>

<svg xmlns="http://www.w3.org/2000/svg" width="24" height="24" viewBox="0 0 24 24">
  <path fill="currentColor" d="M9.425 8.575 2.049 1.2h4.552a.6.6 0 0 0 0-1.2h-6a.6.6 0 0 0-.6.6v6a.6.6 0 0 0 1.2 0V2.048l7.375 7.376a.603.603 0 0 0 .85 0 .6.6 0 0 0 0-.849h-.001ZM23.4 0h-6a.6.6 0 0 0 0 1.2h4.552l-7.375 7.375a.6.6 0 0 0 .847.849l7.377-7.376V6.6a.6.6 0 0 0 1.2 0v-6a.6.6 0 0 0-.6-.6ZM9.425 14.576a.6.6 0 0 0-.849 0l-7.375 7.376V17.4a.6.6 0 0 0-1.2 0v6a.6.6 0 0 0 .6.6h6a.6.6 0 0 0 0-1.2H2.049l7.376-7.376a.6.6 0 0 0 0-.849v.001ZM23.4 16.8a.6.6 0 0 0-.6.6v4.552l-7.377-7.376a.6.6 0 0 0-.848.849L21.95 22.8H17.4a.6.6 0 0 0 0 1.2h6a.6.6 0 0 0 .6-.6v-6a.6.6 0 0 0-.6-.6Z"/>
</svg>
